public/notification.svg

<svg id="Capa_1" enable-background="new 0 0 512 512" height="512" viewBox="0 0 512 512" width="512" xmlns="http://www.w3.org/2000/svg"><g><path d="m256 512c30.692 0 57.122-18.539 68.719-45h-137.438c11.597 26.461 38.028 45 68.719 45z"/><path d="m411 247.862v-32.862c0-69.822-46.411-129.001-110-148.33v-21.67c0-24.813-20.187-45-45-45s-45 20.187-45 45v21.67c-63.59 19.329-110 78.507-110 148.33v32.862c0 61.332-23.378 119.488-65.827 163.756-4.16 4.338-5.329 10.739-2.971 16.267s7.788 9.115 13.798 9.115h420c6.01 0 11.439-3.587 13.797-9.115s1.189-11.929-2.97-16.267c-42.449-44.268-65.827-102.425-65.827-163.756zm-140-187.134c-4.937-.476-9.94-.728-15-.728s-10.063.252-15 .728v-15.728c0-8.271 6.729-15 15-15s15 6.729 15 15z"/><path d="m451 215c0 8.284 6.716 15 15 15s15-6.716 15-15c0-60.1-23.404-116.603-65.901-159.1-5.857-5.857-15.355-5.858-21.213 0s-5.858 15.355 0 21.213c36.831 36.831 57.114 85.8 57.114 137.887z"/><path d="m46 230c8.284 0 15-6.716 15-15 0-52.086 20.284-101.055 57.114-137.886 5.858-5.858 5.858-15.355 0-21.213-5.857-5.858-15.355-5.858-21.213 0-42.497 42.497-65.901 98.999-65.901 159.099 0 8.284 6.716 15 15 15z"/></g></svg>

<?xml version="1.0" encoding="UTF-8" standalone="no"?>
<svg
   xmlns:dc="http://purl.org/dc/elements/1.1/"
   xmlns:cc="http://creativecommons.org/ns#"
   xmlns:rdf="http://www.w3.org/1999/02/22-rdf-syntax-ns#"
   xmlns:svg="http://www.w3.org/2000/svg"
   xmlns="http://www.w3.org/2000/svg"
   xmlns:sodipodi="http://sodipodi.sourceforge.net/DTD/sodipodi-0.dtd"
   xmlns:inkscape="http://www.inkscape.org/namespaces/inkscape"
   id="Capa_1"
   enable-background="new 0 0 512 512"
   height="56.888714"
   viewBox="0 0 50 56.888714"
   width="50"
   version="1.1"
   sodipodi:docname="notification.svg"
   inkscape:version="1.0.1 (3bc2e813f5, 2020-09-07)">
  <metadata
     id="metadata2212">
    <rdf:RDF>
      <cc:Work
         rdf:about="">
        <dc:format>image/svg+xml</dc:format>
        <dc:type
           rdf:resource="http://purl.org/dc/dcmitype/StillImage" />
      </cc:Work>
    </rdf:RDF>
  </metadata>
  <defs
     id="defs2210" />
  <sodipodi:namedview
     pagecolor="#ffffff"
     bordercolor="#666666"
     borderopacity="1"
     objecttolerance="10"
     gridtolerance="10"
     guidetolerance="10"
     inkscape:pageopacity="0"
     inkscape:pageshadow="2"
     inkscape:window-width="1920"
     inkscape:window-height="1017"
     id="namedview2208"
     showgrid="false"
     inkscape:zoom="0.59938348"
     inkscape:cx="418.45301"
     inkscape:cy="83.778518"
     inkscape:window-x="4"
     inkscape:window-y="-8"
     inkscape:window-maximized="1"
     inkscape:current-layer="Capa_1" />
  <g
     id="g2205"
     transform="matrix(0.11111077,0,0,0.11111077,-3.4443041,0)"
     style="fill:#4d4d4d;fill-opacity:1">
    <path
       d="m 256,512 c 30.692,0 57.122,-18.539 68.719,-45 H 187.281 c 11.597,26.461 38.028,45 68.719,45 z"
       id="path2197"
       style="fill:#4d4d4d;fill-opacity:1" />
    <path
       d="M 411,247.862 V 215 C 411,145.178 364.589,85.999 301,66.67 V 45 C 301,20.187 280.813,0 256,0 231.187,0 211,20.187 211,45 V 66.67 C 147.41,85.999 101,145.177 101,215 v 32.862 c 0,61.332 -23.378,119.488 -65.827,163.756 -4.16,4.338 -5.329,10.739 -2.971,16.267 C 34.56,433.413 39.99,437 46,437 h 420 c 6.01,0 11.439,-3.587 13.797,-9.115 2.358,-5.528 1.189,-11.929 -2.97,-16.267 C 434.378,367.35 411,309.193 411,247.862 Z M 271,60.728 C 266.063,60.252 261.06,60 256,60 c -5.06,0 -10.063,0.252 -15,0.728 V 45 c 0,-8.271 6.729,-15 15,-15 8.271,0 15,6.729 15,15 z"
       id="path2199"
       style="fill:#4d4d4d;fill-opacity:1" />
    <path
       d="m 451,215 c 0,8.284 6.716,15 15,15 8.284,0 15,-6.716 15,-15 0,-60.1 -23.404,-116.603 -65.901,-159.1 -5.857,-5.857 -15.355,-5.858 -21.213,0 -5.858,5.858 -5.858,15.355 0,21.213 C 430.717,113.944 451,162.913 451,215 Z"
       id="path2201"
       style="fill:#4d4d4d;fill-opacity:1" />
    <path
       d="m 46,230 c 8.284,0 15,-6.716 15,-15 0,-52.086 20.284,-101.055 57.114,-137.886 5.858,-5.858 5.858,-15.355 0,-21.213 -5.857,-5.858 -15.355,-5.858 -21.213,0 C 54.404,98.398 31,154.9 31,215 c 0,8.284 6.716,15 15,15 z"
       id="path2203"
       style="fill:#4d4d4d;fill-opacity:1" />
  </g>
</svg>
